V6_wwwroot/ptn/core/icons/fa6/svgs/solid/dumbbell.svg

<svg xmlns="http://www.w3.org/2000/svg" viewBox="0 0 640 512"><!--! Font Awesome Free 6.7.2 by @fontawesome - https://fontawesome.com License - https://fontawesome.com/license/free (Icons: CC BY 4.0, Fonts: SIL OFL 1.1, Code: MIT License) Copyright 2024 Fonticons, Inc. --><path d="M96 64c0-17.7 14.3-32 32-32l32 0c17.7 0 32 14.3 32 32l0 160 0 64 0 160c0 17.7-14.3 32-32 32l-32 0c-17.7 0-32-14.3-32-32l0-64-32 0c-17.7 0-32-14.3-32-32l0-64c-17.7 0-32-14.3-32-32s14.3-32 32-32l0-64c0-17.7 14.3-32 32-32l32 0 0-64zm448 0l0 64 32 0c17.7 0 32 14.3 32 32l0 64c17.7 0 32 14.3 32 32s-14.3 32-32 32l0 64c0 17.7-14.3 32-32 32l-32 0 0 64c0 17.7-14.3 32-32 32l-32 0c-17.7 0-32-14.3-32-32l0-160 0-64 0-160c0-17.7 14.3-32 32-32l32 0c17.7 0 32 14.3 32 32zM416 224l0 64-192 0 0-64 192 0z"/></svg>

<svg xmlns="http://www.w3.org/2000/svg" viewBox="0 0 640 512"><!--! Font Awesome Free 6.4.2 by @fontawesome - https://fontawesome.com License - https://fontawesome.com/license/free (Icons: CC BY 4.0, Fonts: SIL OFL 1.1, Code: MIT License) Copyright 2023 Fonticons, Inc. --><path d="M96 64c0-17.7 14.3-32 32-32h32c17.7 0 32 14.3 32 32V224v64V448c0 17.7-14.3 32-32 32H128c-17.7 0-32-14.3-32-32V384H64c-17.7 0-32-14.3-32-32V288c-17.7 0-32-14.3-32-32s14.3-32 32-32V160c0-17.7 14.3-32 32-32H96V64zm448 0v64h32c17.7 0 32 14.3 32 32v64c17.7 0 32 14.3 32 32s-14.3 32-32 32v64c0 17.7-14.3 32-32 32H544v64c0 17.7-14.3 32-32 32H480c-17.7 0-32-14.3-32-32V288 224 64c0-17.7 14.3-32 32-32h32c17.7 0 32 14.3 32 32zM416 224v64H224V224H416z"/></svg>
